X:372
T:Reel 372
M:4/4
K:Emin
L:1/8
dc|BE (3GFE BEGE|FDB,^c DFAF|E^DEF GFGA|B^cdB e2dc|Bee^d B^cdB|AFDE FGAF|EB,E^c dfdB|AGFB E2|EA|Bee^d efe=d|B^cdf edBA|Bee^d edef|gffd efed|Bee^d eded|B^cdf efdA|Bdfe dcdc|Be^df efed|
